assets/icons/standard/apps_admin.svg

<?xml version="1.0"?><svg xmlns="http://www.w3.org/2000/svg" width="100" height="100" viewBox="0 0 100 100"><path fill="#fff" d="m73 21h-46c-3.3 0-6 2.7-6 6v46c0 3.3 2.7 6 6 6h46c3.3 0 6-2.7 6-6v-46c0-3.3-2.7-6-6-6z m-2 52h-42c-1.1 0-2-0.9-2-2v-42c0-1.1 0.9-2 2-2h42c1.1 0 2 0.9 2 2v42c0 1.1-0.9 2-2 2z m-26-40h-10c-1.1 0-2 0.9-2 2v10c0 1.1 0.9 2 2 2h10c1.1 0 2-0.9 2-2v-10c0-1.1-0.9-2-2-2z m20 0h-10c-1.1 0-2 0.9-2 2v10c0 1.1 0.9 2 2 2h10c1.1 0 2-0.9 2-2v-10c0-1.1-0.9-2-2-2z m-20 20h-10c-1.1 0-2 0.9-2 2v10c0 1.1 0.9 2 2 2h10c1.1 0 2-0.9 2-2v-10c0-1.1-0.9-2-2-2z m20 0h-10c-1.1 0-2 0.9-2 2v10c0 1.1 0.9 2 2 2h10c1.1 0 2-0.9 2-2v-10c0-1.1-0.9-2-2-2z"></path></svg>

<svg xmlns="http://www.w3.org/2000/svg" x="0px" y="0px" width="100" height="100"
	 viewBox="0 0 100 100" style="enable-background:new 0 0 100 100;" xml:space="preserve">

<g>
	<g>
		<path fill="#FFFFFF" d="M73,21H27c-3.3,0-6,2.7-6,6v46c0,3.3,2.7,6,6,6h46c3.3,0,6-2.7,6-6V27C79,23.7,76.3,21,73,21z M71,73H29
			c-1.1,0-2-0.9-2-2V29c0-1.1,0.9-2,2-2h42c1.1,0,2,0.9,2,2l0,42C73,72.1,72.1,73,71,73z"/>
	</g>
	<g>
		<path fill="#FFFFFF" d="M45,33H35c-1.1,0-2,0.9-2,2v10c0,1.1,0.9,2,2,2h10c1.1,0,2-0.9,2-2V35C47,33.9,46.1,33,45,33z"/>
	</g>
	<g>
		<path fill="#FFFFFF" d="M65,33H55c-1.1,0-2,0.9-2,2v10c0,1.1,0.9,2,2,2h10c1.1,0,2-0.9,2-2V35C67,33.9,66.1,33,65,33z"/>
	</g>
	<g>
		<path fill="#FFFFFF" d="M45,53H35c-1.1,0-2,0.9-2,2v10c0,1.1,0.9,2,2,2h10c1.1,0,2-0.9,2-2V55C47,53.9,46.1,53,45,53z"/>
	</g>
	<g>
		<path fill="#FFFFFF" d="M65,53H55c-1.1,0-2,0.9-2,2v10c0,1.1,0.9,2,2,2h10c1.1,0,2-0.9,2-2V55C67,53.9,66.1,53,65,53z"/>
	</g>
</g>
</svg>
